Papirus/64x64/apps/tuxedo-control-center.svg

<svg width="64" height="64" version="1.1" xmlns="http://www.w3.org/2000/svg">
 <rect x="3.9999762" y="5" width="56.000019" height="56.000019" rx="10.937495" ry="10.937495" style="opacity:.2"/>
 <rect x="3.9999762" y="4" width="56.000023" height="56.000023" rx="10.937495" ry="10.937495" style="fill:#4f4f4f"/>
 <path d="m 36.605807,11 c -4.45708,0 -8.921845,1.251626 -13.022033,3.3676 C 14.211873,19.20394 8,28.782663 8,39.328793 8,45 9.5251932,50.384757 12.305983,55 h 6.045366 C 14.884858,50.701853 12.865043,45.157321 13,39.450091 c 0.205334,-8.677993 5.224489,-16.540496 12.936421,-20.520247 3.425023,-1.767488 7.15463,-2.929364 10.872424,-2.929364 4.653354,0 9.288203,1.657313 13.284146,4.360246 0.849523,0.518328 1.457039,0.485462 2.384137,0.114699 C 53.338592,20.130909 54,19.360115 54,18.42705 54,17.500959 53.745522,16.614372 52.967871,16.108278 46.20252,11.532173 39.50136,11 36.605807,11 Z" style="opacity:.2"/>
 <path d="m 36.605807,10 c -4.45708,0 -8.921845,1.251626 -13.022033,3.3676 C 14.211873,18.20394 8,27.782663 8,38.328793 8,44 9.5251932,49.384757 12.305983,54 h 6.045366 C 14.884858,49.701853 12.865043,44.157321 13,38.450091 c 0.205334,-8.677993 5.224489,-16.540496 12.936421,-20.520247 3.425023,-1.767488 7.15463,-2.929364 10.872424,-2.929364 4.653354,0 9.288203,1.657313 13.284146,4.360246 0.849523,0.518328 1.457039,0.485462 2.384137,0.114699 C 53.338592,19.130909 54,18.360115 54,17.42705 54,16.500959 53.745522,15.614372 52.967871,15.108278 46.20252,10.532173 39.50136,10 36.605807,10 Z" style="fill:#c2352a"/>
 <path d="m50.190483 25h-29.190483v3h23.753827l-5.070735 8.189325-3.461354-6.189061-5.076105-5.29e-4 5.894991 9.917-10.440191 15.083265h28.399567v-3h-22.718889l6.295116-9.712109 4.262701 7.712109h5.093754l-6.674412-11.376925z" style="opacity:.2"/>
 <path d="m50.190483 24h-29.190483v3h23.753827l-5.070735 8.189325-3.461354-6.189061-5.076105-5.29e-4 5.894991 9.917-10.440191 15.083265h28.399567v-3h-22.718889l6.295116-9.712109 4.262701 7.712109h5.093754l-6.674412-11.376925z" style="fill:#ececec"/>
 <path d="M 14.9375 4 C 8.8781276 4 4 8.8781276 4 14.9375 L 4 15.9375 C 4 9.8781276 8.8781276 5 14.9375 5 L 49.0625 5 C 55.121872 5 60 9.8781276 60 15.9375 L 60 14.9375 C 60 8.8781276 55.121872 4 49.0625 4 L 14.9375 4 z " style="fill:#ffffff;opacity:.1"/>
 <path d="m36.605469 10c-4.45708 0-8.921297 1.251213-13.021485 3.367188-9.371901 4.836339-15.583984 14.414807-15.583984 24.960937 0 0.173631 0.004961 0.346452 0.0078125 0.519531 0.1859043-10.355349 6.3472165-19.717895 15.576172-24.480468 4.100188-2.115975 8.564405-3.367188 13.021485-3.367188 2.895553 0 9.59793 0.531317 16.363281 5.107422 0.607731 0.39551 0.88744 1.027087 0.984375 1.724609 0.027949-0.131189 0.046875-0.264995 0.046875-0.404297 0-0.926091-0.253599-1.814218-1.03125-2.320312-6.765351-4.576105-13.467728-5.107422-16.363281-5.107422zm-23.605469 29.517578c-0.108344 5.250825 1.607235 10.359021 4.591797 14.482422h0.759765c-3.249835-4.029513-5.228165-9.154929-5.351562-14.482422z" style="fill:#ffffff;opacity:.2"/>
</svg>

<svg xmlns="http://www.w3.org/2000/svg" width="64" height="64" version="1.1">
 <rect style="opacity:0.2" width="56" height="56" x="4" y="5" rx="10.937" ry="10.937"/>
 <rect style="fill:#4f4f4f" width="56" height="56" x="4" y="4" rx="10.937" ry="10.937"/>
 <path style="opacity:0.1" d="M 36.606,11 C 32.149,11 27.684,12.252 23.584,14.368 14.212,19.204 8,28.783 8,39.329 8,45 9.5252,50.385 12.306,55 H 18.351 C 14.885,50.702 12.865,45.157 13,39.45 13.205,30.772 18.224,22.91 25.936,18.93 29.361,17.162 33.091,16 36.809,16 41.462,16 46.097,17.658 50.093,20.361 50.943,20.879 51.55,20.846 52.477,20.475 53.339,20.131 54,19.36 54,18.427 54,17.501 53.746,16.614 52.968,16.108 46.203,11.532 39.501,11 36.606,11 Z"/>
 <path style="fill:#c2352a" d="M 36.606,10 C 32.149,10 27.684,11.252 23.584,13.368 14.212,18.204 8,27.783 8,38.329 8,44 9.5252,49.385 12.306,54 H 18.351 C 14.885,49.702 12.865,44.157 13,38.45 13.205,29.772 18.224,21.91 25.936,17.93 29.361,16.162 33.091,15 36.809,15 41.462,15 46.097,16.658 50.093,19.361 50.943,19.879 51.55,19.846 52.477,19.475 53.339,19.131 54,18.36 54,17.427 54,16.501 53.746,15.614 52.968,15.108 46.203,10.532 39.501,10 36.606,10 Z"/>
 <path style="opacity:0.1" d="M 50.19,25 H 21 V 28 H 44.754 L 39.683,36.189 36.222,30 H 31.146 L 37.041,39.917 26.6,55 H 55 V 52 H 32.281 L 38.576,42.288 42.839,50 H 47.933 L 41.258,38.623 Z"/>
 <path style="fill:#ececec" d="M 50.19,24 H 21 V 27 H 44.754 L 39.683,35.189 36.222,29 H 31.146 L 37.041,38.917 26.6,54 H 55 V 51 H 32.281 L 38.576,41.288 42.839,49 H 47.933 L 41.258,37.623 Z"/>
 <path style="opacity:0.1;fill:#ffffff" d="M 14.938,4 C 8.8781,4 4,8.8781 4,14.938 V 15.938 C 4,9.8781 8.8781,5 14.938,5 H 49.063 C 55.122,5 60,9.8781 60,15.938 V 14.938 C 60,8.8781 55.122,4 49.063,4 Z"/>
 <path style="opacity:0.2;fill:#ffffff" d="M 36.605,10 C 32.148,10 27.684,11.251 23.584,13.367 14.212,18.204 8,27.782 8,38.328 8,38.502 8.005,38.675 8.0078,38.848 8.1937,28.492 14.355,19.13 23.584,14.367 27.684,12.251 32.148,11 36.605,11 39.501,11 46.203,11.531 52.969,16.107 53.576,16.503 53.856,17.135 53.953,17.832 53.981,17.701 54,17.567 54,17.428 54,16.502 53.746,15.614 52.969,15.107 46.203,10.531 39.501,10 36.605,10 Z M 13,39.518 C 12.892,44.768 14.607,49.877 17.592,54 H 18.352 C 15.102,49.97 13.123,44.845 13,39.518 Z"/>
</svg>
